X:77
T:Bridge of Inver, The
R:Reel
C:James Macintosh
B:The Athole Collection
M:C|
L:1/8
K:B_
d|~B2 FE DB,B,D|ECCE DF~FA|B2 FD CFBF|GecA ~B2 B:|
f|dBdf gBbB|fdcB Ac~cf|dBdf gbfg|dfcA ~B2 Bf|dBdf gBbB|
gBfB Accd|~BGFE DFBF|GecA ~B2B||

